X:1
T:Title
%%score { 1 | 2 }
L:1/8
Q:1/4=100
M:2/4
K:Eb
V:1 treble nm="Grand Piano"
V:2 bass 
V:1
 G<.G _G<.G | G2 A2 | G4 | [DF]<.[DF] [_D=E]<.[DE] | [DF]2 [EG]2 |[M:1/4] [DF]2 | %6
w: J.~J.~Jelley * * *||||||
[M:3/4] [DF][EG] [FA]2 [FA]2 | [EG][FA] [GB]2 [GB]2 | [GB][GB] [Ac]2 [ce]2 | %9
w: |||
[M:2/4] [Bd][Ac] [GB]2- |[M:1/4] [GB]2 | EF |[M:3/4] G2 A2 G_G | G2 [EGB]2 [B,EG][_DEG] | %14
w: |||||
 [CEA][A,CF][K:bass] [G,B,E]2 [F,B,D]2 |[M:2/4] [G,B,E]4 |] %16
w: ||
V:2
 [E,B,E]<.[E,B,E] [E,=A,E]<.[E,A,E] | [E,B,E]2 [E,CE]2 | [E,B,E]4 | %3
 [B,,B,]<.[B,,B,] [B,,B,]<.[B,,B,] | [B,,B,]2 [B,,B,]2 |[M:1/4] [B,,B,]2 | %6
[M:3/4] [B,,B,][B,,B,] [B,,B,]2 [C,B,]2 | [E,B,][E,B,] [E,E]2 [E,E]2 | [E,E][E,E] [A,E]2 [A,E]2 | %9
[M:2/4] [A,E][A,E] [E,E]2- |[M:1/4] [E,E]2 | [E,G,][E,A,E] | %12
[M:3/4] [E,B,E]2 [E,CE]2 [E,B,E][E,=A,E] | [E,B,E]2 E,2 E,E, | A,,A,, B,,2 B,,2 |[M:2/4] E,4 |] %16

